Newaita-dark/actions/32/draw-star.svg

<svg height="32" viewBox="0 0 32 32" width="32" xmlns="http://www.w3.org/2000/svg"><path d="m15.941406 4.226562c-.542968-.027343-1.042968.28125-1.265625.777344l-2.910156 6.496094-7.078125.761719c-.515625.054687-.953125.40625-1.113281.902343-.160157.492188-.015625 1.035157.371093 1.382813l5.277344 4.773437-1.464844 6.96875c-.105468.507813.097657 1.03125.515626 1.335938.421874.304688.980468.335938 1.429687.074219l6.171875-3.542969 6.175781 3.542969c.449219.261719 1.007813.230469 1.429688-.074219.417969-.304688.621093-.828125.511719-1.335938l-1.460938-6.96875 5.277344-4.773437c.386718-.347656.53125-.890625.371094-1.382813-.160157-.496093-.597657-.847656-1.113282-.902343l-7.078125-.761719-2.910156-6.496094c-.203125-.453125-.640625-.753906-1.136719-.777344zm-.066406 4.535157 2.019531 4.503906c.191407.429687.59375.722656 1.0625.773437l4.90625.527344-3.660156 3.308594c-.347656.316406-.5.789062-.40625 1.25l1.015625 4.828125-4.28125-2.457031c-.40625-.234375-.90625-.234375-1.308594 0l-4.28125 2.457031 1.015625-4.828125c.09375-.460938-.058593-.933594-.40625-1.25l-3.660156-3.308594 4.90625-.527344c.464844-.050781.871094-.34375 1.0625-.773437zm0 0" fill="#e0e0e0"/></svg>

<?xml version="1.0" encoding="UTF-8"?>
<svg xmlns="http://www.w3.org/2000/svg" xmlns:xlink="http://www.w3.org/1999/xlink" width="32px" height="32px" viewBox="0 0 32 32" version="1.1">
<g id="surface1">
<path style=" stroke:none;fill-rule:nonzero;fill:rgb(87.843138%,87.843138%,87.843138%);fill-opacity:1;" d="M 15.941406 4.226562 C 15.398438 4.199219 14.898438 4.507812 14.675781 5.003906 L 11.765625 11.5 L 4.6875 12.261719 C 4.171875 12.316406 3.734375 12.667969 3.574219 13.164062 C 3.414062 13.65625 3.558594 14.199219 3.945312 14.546875 L 9.222656 19.320312 L 7.757812 26.289062 C 7.652344 26.796875 7.855469 27.320312 8.273438 27.625 C 8.695312 27.929688 9.253906 27.960938 9.703125 27.699219 L 15.875 24.15625 L 22.050781 27.699219 C 22.5 27.960938 23.058594 27.929688 23.480469 27.625 C 23.898438 27.320312 24.101562 26.796875 23.992188 26.289062 L 22.53125 19.320312 L 27.808594 14.546875 C 28.195312 14.199219 28.339844 13.65625 28.179688 13.164062 C 28.019531 12.667969 27.582031 12.316406 27.066406 12.261719 L 19.988281 11.5 L 17.078125 5.003906 C 16.875 4.550781 16.4375 4.25 15.941406 4.226562 Z M 15.875 8.761719 L 17.894531 13.265625 C 18.085938 13.695312 18.488281 13.988281 18.957031 14.039062 L 23.863281 14.566406 L 20.203125 17.875 C 19.855469 18.191406 19.703125 18.664062 19.796875 19.125 L 20.8125 23.953125 L 16.53125 21.496094 C 16.125 21.261719 15.625 21.261719 15.222656 21.496094 L 10.941406 23.953125 L 11.957031 19.125 C 12.050781 18.664062 11.898438 18.191406 11.550781 17.875 L 7.890625 14.566406 L 12.796875 14.039062 C 13.261719 13.988281 13.667969 13.695312 13.859375 13.265625 Z M 15.875 8.761719 "/>
</g>
</svg>
